Gruvbox-Material-Icons/actions/24/bookmark-new.svg

<svg width="24" height="24" version="1.1" viewBox="0 0 24 24" xmlns="http://www.w3.org/2000/svg">
  <defs>
    <style id="current-color-scheme" type="text/css">.ColorScheme-Text { color:#ebdbb2; } .ColorScheme-Highlight { color:#458588; }</style>
  </defs>
  <path class="ColorScheme-Text" d="m8 4s-1 0-1 1v14l5-3 5 3v-14s0-1-1-1zm3 3h2v2h2v2h-2v2h-2v-2h-2v-2h2z" fill="currentColor"/>
</svg>

<svg xmlns="http://www.w3.org/2000/svg" width="24" height="24" version="1.1" viewBox="0 0 24 24">
 <defs>
  <style id="current-color-scheme" type="text/css">
   .ColorScheme-Text { color:#ebdbb2; } .ColorScheme-Highlight { color:#458588; }
  </style>
 </defs>
 <path style="fill:currentColor" class="ColorScheme-Text" d="M 8,4 C 8,4 7,4 7,5 V 19 L 12,16 17,19 V 5 C 17,5 17,4 16,4 Z M 11,7 H 13 V 9 H 15 V 11 H 13 V 13 H 11 V 11 H 9 V 9 H 11 Z"/>
</svg>
